src/24/panel/num-lock-off.svg

<svg xmlns="http://www.w3.org/2000/svg" width="24" height="24" version="1.1">
 <defs>
  <style id="current-color-scheme" type="text/css">
   .ColorScheme-Text { color:#dfdfdf; } .ColorScheme-Highlight { color:#4285f4; }
  </style>
 </defs>
 <g opacity=".3" transform="matrix(.99995 0 0 1 .00071135 -1028.4)">
  <path fill-rule="evenodd" style="fill:currentColor" class="ColorScheme-Text" d="m7 4a2.0002 2.0002 0 0 0 -1.9883 1.7793l-1 8.9997a2.0002 2.0002 0 0 0 1.9883 2.221h12a2.0002 2.0002 0 0 0 1.988 -2.221l-1-8.9997a2.0002 2.0002 0 0 0 -1.988 -1.7793h-10zm6 2v2 5h2v2h-6v-2h2v-4.5l-2 0.5v-2l4-1z" transform="translate(0,1028.4)"/>
  <path style="fill:currentColor" class="ColorScheme-Text" d="m4 17.203v0.547c0 1.212 1.0381 2.25 2.25 2.25h11.5c1.212 0 2.25-1.038 2.25-2.25v-0.547c-0.532 0.485-1.225 0.797-2 0.797h-12c-0.7746 0-1.4684-0.312-2-0.797z" transform="translate(0,1028.4)"/>
 </g>
</svg>

<svg xmlns="http://www.w3.org/2000/svg" width="24" height="24"><defs><style id="current-color-scheme" type="text/css">.ColorScheme-Text{color:#bebebe}</style></defs><g opacity=".3"><path fill-rule="evenodd" class="ColorScheme-Text" d="M7 4a2 2 0 0 0-1.988 1.78l-1 8.999A2 2 0 0 0 6 17h12a2 2 0 0 0 1.988-2.221l-1-9A2 2 0 0 0 17 4H7zm6 2v7h2v2H9v-2h2V8.5L9 9V7l4-1z" fill="currentColor"/><path class="ColorScheme-Text" d="M4 17.203v.547C4 18.962 5.04 20 6.25 20h11.5c1.212 0 2.25-1.038 2.25-2.25v-.547A2.959 2.959 0 0 1 18 18H6a2.959 2.959 0 0 1-2-.797z" fill="currentColor"/></g></svg>
